public/img/icon/academ/office.svg

<svg width="938" height="219" viewBox="0 0 938 219" fill="none" xmlns="http://www.w3.org/2000/svg">
<path d="M106.647 213.509C86.5289 213.509 68.3637 209.017 52.1517 200.032C35.9398 190.852 23.146 178.351 13.7704 162.53C4.59013 146.708 0 129.032 0 109.499C0 89.9666 4.59013 72.2897 13.7704 56.4684C23.146 40.6471 35.9398 28.2439 52.1517 19.259C68.3637 10.0787 86.5289 5.4886 106.647 5.4886C126.766 5.4886 144.931 9.98107 161.143 18.966C177.355 27.9509 190.051 40.3541 199.231 56.1754C208.607 71.9967 213.295 89.7712 213.295 109.499C213.295 129.227 208.607 147.001 199.231 162.823C190.051 178.644 177.355 191.047 161.143 200.032C144.931 209.017 126.766 213.509 106.647 213.509ZM106.647 199.739C123.836 199.739 139.364 195.833 153.232 188.02C167.1 180.207 178.039 169.464 186.047 155.791C194.055 141.923 198.059 126.492 198.059 109.499C198.059 92.5058 194.055 77.1728 186.047 63.5001C178.039 49.632 167.1 38.7915 153.232 30.9785C139.364 23.1655 123.836 19.259 106.647 19.259C89.4587 19.259 73.8328 23.1655 59.7694 30.9785C45.9013 38.7915 34.9631 49.632 26.9548 63.5001C18.9465 77.1728 14.9423 92.5058 14.9423 109.499C14.9423 126.492 18.9465 141.923 26.9548 155.791C34.9631 169.464 45.9013 180.207 59.7694 188.02C73.8328 195.833 89.4587 199.739 106.647 199.739Z" fill="#CC9964"/>
<path d="M482.122 109.499C482.122 127.469 477.727 142.997 468.937 156.084C460.148 169.171 447.452 179.328 430.849 186.555C414.442 193.586 394.812 197.298 371.959 197.688V218.49H357.602V197.688C334.749 197.298 315.021 193.586 298.419 186.555C282.012 179.328 269.413 169.171 260.624 156.084C251.834 142.997 247.439 127.469 247.439 109.499C247.439 91.3338 251.834 75.7079 260.624 62.6211C269.413 49.5343 282.012 39.4751 298.419 32.4434C315.021 25.2164 334.749 21.4076 357.602 21.0169V0.507812H371.959V21.0169C406.531 21.9936 433.486 30.1972 452.823 45.6278C472.356 61.0585 482.122 82.3489 482.122 109.499ZM371.959 185.383C402.039 184.406 425.478 177.374 442.276 164.288C459.073 151.006 467.472 132.645 467.472 109.206C467.472 85.9624 459.073 67.7972 442.276 54.7104C425.478 41.4284 402.039 34.299 371.959 33.3224V185.383ZM262.088 109.499C262.088 132.938 270.487 151.201 287.285 164.288C304.083 177.374 327.522 184.406 357.602 185.383V33.3224C327.327 34.299 303.79 41.4284 286.992 54.7104C270.39 67.7972 262.088 86.0601 262.088 109.499Z" fill="#CC9964"/>
<path d="M534.912 6.95353H549.854V186.848L689.609 6.95353H702.794V212.045H687.851V32.4434L548.096 212.045H534.912V6.95353Z" fill="#CC9964"/>
<path d="M864.58 213.509C844.461 213.509 826.296 209.017 810.084 200.032C794.068 191.047 781.371 178.644 771.996 162.823C762.816 147.001 758.226 129.227 758.226 109.499C758.226 89.7712 762.816 71.9967 771.996 56.1754C781.371 40.3541 794.068 27.9509 810.084 18.966C826.296 9.98107 844.461 5.4886 864.58 5.4886C879.424 5.4886 893.097 7.93016 905.598 12.8133C918.099 17.5011 928.744 24.5328 937.534 33.9084L928.158 43.5769C911.751 27.365 890.753 19.259 865.166 19.259C847.977 19.259 832.351 23.1655 818.288 30.9785C804.225 38.7915 793.189 49.632 785.18 63.5001C777.172 77.1728 773.168 92.5058 773.168 109.499C773.168 126.492 777.172 141.923 785.18 155.791C793.189 169.464 804.225 180.207 818.288 188.02C832.351 195.833 847.977 199.739 865.166 199.739C890.558 199.739 911.555 191.535 928.158 175.128L937.534 184.797C928.744 194.172 918.001 201.302 905.305 206.185C892.804 211.068 879.229 213.509 864.58 213.509Z" fill="#CC9964"/>
</svg>

<svg width="938" height="219" fill="none" xmlns="http://www.w3.org/2000/svg"><path d="M106.647 213.509c-20.118 0-38.283-4.492-54.495-13.477-16.212-9.18-29.006-21.681-38.382-37.502C4.59 146.708 0 129.032 0 109.499c0-19.532 4.59-37.21 13.77-53.03 9.376-15.822 22.17-28.225 38.382-37.21 16.212-9.18 34.377-13.77 54.495-13.77 20.119 0 38.284 4.492 54.496 13.477 16.212 8.985 28.908 21.388 38.088 37.21 9.376 15.82 14.064 33.595 14.064 53.323s-4.688 37.502-14.064 53.324c-9.18 15.821-21.876 28.224-38.088 37.209-16.212 8.985-34.377 13.477-54.496 13.477zm0-13.77c17.189 0 32.717-3.906 46.585-11.719 13.868-7.813 24.807-18.556 32.815-32.229 8.008-13.868 12.012-29.299 12.012-46.292 0-16.993-4.004-32.326-12.012-45.999-8.008-13.868-18.947-24.709-32.815-32.522-13.868-7.813-29.396-11.719-46.585-11.719-17.188 0-32.814 3.907-46.878 11.72C45.901 38.791 34.963 49.632 26.955 63.5 18.947 77.173 14.942 92.506 14.942 109.5c0 16.993 4.005 32.424 12.013 46.292 8.008 13.673 18.946 24.416 32.814 32.229 14.064 7.813 29.69 11.719 46.878 11.719zM482.122 109.499c0 17.97-4.395 33.498-13.185 46.585-8.789 13.087-21.485 23.244-38.088 30.471-16.407 7.031-36.037 10.743-58.89 11.133v20.802h-14.357v-20.802c-22.853-.39-42.581-4.102-59.183-11.133-16.407-7.227-29.006-17.384-37.795-30.471-8.79-13.087-13.185-28.615-13.185-46.585 0-18.165 4.395-33.791 13.185-46.878 8.789-13.087 21.388-23.146 37.795-30.178 16.602-7.227 36.33-11.035 59.183-11.426V.507h14.357v20.51c34.572.977 61.527 9.18 80.864 24.61 19.533 15.431 29.299 36.722 29.299 63.872zm-110.163 75.884c30.08-.977 53.519-8.009 70.317-21.095 16.797-13.282 25.196-31.643 25.196-55.082 0-23.244-8.399-41.409-25.196-54.496-16.798-13.282-40.237-20.411-70.317-21.388v152.061zm-109.871-75.884c0 23.439 8.399 41.702 25.197 54.789 16.798 13.086 40.237 20.118 70.317 21.095V33.323c-30.275.976-53.812 8.105-70.61 21.387-16.602 13.087-24.904 31.35-24.904 54.789zM534.912 6.954h14.942v179.894L689.609 6.954h13.185v205.091h-14.943V32.443L548.096 212.045h-13.184V6.954zM864.58 213.509c-20.119 0-38.284-4.492-54.496-13.477-16.016-8.985-28.713-21.388-38.088-37.209-9.18-15.822-13.77-33.596-13.77-53.324s4.59-37.502 13.77-53.324c9.375-15.82 22.072-28.224 38.088-37.209 16.212-8.985 34.377-13.477 54.496-13.477 14.844 0 28.517 2.441 41.018 7.324 12.501 4.688 23.146 11.72 31.936 21.095l-9.376 9.669c-16.407-16.212-37.405-24.318-62.992-24.318-17.189 0-32.815 3.907-46.878 11.72-14.063 7.813-25.099 18.653-33.108 32.521-8.008 13.673-12.012 29.006-12.012 45.999 0 16.993 4.004 32.424 12.012 46.292 8.009 13.673 19.045 24.416 33.108 32.229 14.063 7.813 29.689 11.719 46.878 11.719 25.392 0 46.389-8.204 62.992-24.611l9.376 9.669c-8.79 9.375-19.533 16.505-32.229 21.388-12.501 4.883-26.076 7.324-40.725 7.324z" fill="#CC9964"/></svg>
